X: 1
T: O jul med din glede
C: Words: Gustava Kielland
C: Tune: Trad (Norway)
M: C
L: 1/8
K: C
C |\
   "C"[G2E2C2] "G"[GD][GD] "C"[E2C2] CC |\
   "F"[A2F2] [AF][AF] "C"[G2E2] z[GF] |\
   "C"[c2E2] [GE][FD] [E2C2] [GE][EC] |
w: 1.~O jul med din gle-de og barn-li-ge lyst, vi \on-sker deg al-le vel-
w: 2.~I \Os-ter-lands vi-se i tre stjer-ne-menn, vi vet jo nok hvor-hen i
w: 3.~S\aa rek-ker jeg deg n\aa med gle-de min h\aand. Kom skynd deg og gi meg den
   "G7"[D4B,4] "C"C2 zC |\
   "C"[G2E2C2] "G"[GD][GD] "C"[E2C2] CC |\
   "F"[A2F2] [AF][AF] "C"[G2E2] z[GF] |
w: kom-men. Vi hil-ser deg al-le med jub-len-de r\ost, ti-
w: dra-ge. Ti vi vil-le og-s\aa s\aa gjer-ne der-hen og
w: and-re. S\aa knyt-ter vi kj\aer-lig-hets hel-li-ge b\aand og
   "C"[c2E2] [GE][FD] [E2C2] [GE][EC] |\
   "G7"[D4B,4] "C"C2 |[| z[cE] |\
   "G7"[BD]B/c/ [dF][BD] "C"[G2E2] [c2E2] |
w: tu-sen-de gang-er vel-kom-men. Vi klap-per i hen-de-ne, vi
w: ed-er p\aa rew-sen led-sa-ge.
w: lo-ver \aa el-ske hver-an-dre.
   "G7"[BF]c [dF]B "C"[G2E2] [c2G2] |\
   "F"[B2G2] [A2F2] "A7"[G2E2] "Dm"[F2D2] |\
   "C"[E2C2] "E7"[D2B,2] "Am"[C2A,2] [E2A,2] |
w: syn-ger og vi ler, s\aa glad er vi, s\aa glad er vi! Vi
   "Dm"[DA,]E [FD][AF] "C"[G2E2] "G7"[FD]B, |\
   "G7"[D4B,4] "C"[C2G,2] "Am"[E2C2] |\
   "Dm"([D2-A,2] "G7"[D2B,2]) "C"[C3G,] |]
w: svin-ger oss i kret-sen og nei-er, og buk-_ker.
